Ephect/Samples/Common/public/img/salamandra.svg

<?xml version="1.0" encoding="UTF-8" standalone="no"?>
<!DOCTYPE svg PUBLIC "-//W3C//DTD SVG 1.1//EN" "http://www.w3.org/Graphics/SVG/1.1/DTD/svg11.dtd">
<svg width="100%" height="100%" viewBox="0 0 3225 3225" version="1.1" xmlns="http://www.w3.org/2000/svg" xmlns:xlink="http://www.w3.org/1999/xlink" xml:space="preserve" xmlns:serif="http://www.serif.com/" style="fill-rule:evenodd;clip-rule:evenodd;stroke-linejoin:round;stroke-miterlimit:2;">
    <g id="Salamandra">
        <path id="Background" d="M1398.83,872.199c-2.01,4.782 -3.07,6.618 -2.81,6.688c257.69,70.059 167.33,306.298 33.72,339.868c-34.63,8.71 -229.57,41.21 -448.767,2.28c-173.433,-30.8 -213.633,-8.89 -185.008,8.25c391.585,234.46 1164.57,19.42 1613.49,51.52c860.69,61.54 733.96,794.14 732.89,840.5c-0,0.38 0.38,0 0.38,0c-4.61,140.41 -58.98,218.12 -118.05,284.15c-209.73,234.45 -624.79,154.79 -1116.63,131.59c-848.36,-40 -1273.81,-26.58 -1532.97,-12.72c-171.936,9.2 -312.807,18.62 -303.094,12.72c159.745,-97.02 313.339,-156.32 492.969,-181.07c94.379,-13.01 195.947,-16.48 309.37,-10.87c1731.65,85.56 1967.29,125.972 1901.38,-175.617l-15.046,-43.007c-49.687,-138.47 -211.444,-108.466 -212.473,-76.463c-7.342,228.428 122.816,226.129 74.5,277.527c-48.347,51.431 -119.138,-88.17 -174.109,-59.215c-27.333,14.396 58.4,103.085 -0,113.515c-66.29,11.84 -74.994,-83.611 -115.344,-83.34c-53.598,0.36 -35.269,94.06 -101.269,83.34c-61.73,-10.02 -2.472,-79.077 -23.478,-100.07c-49.813,-49.781 -91.777,67.176 -132.697,45.77c-53.798,-28.142 8.506,-120.83 53.677,-178.37c64.312,-81.925 19.54,-117.031 1.54,-105.361c-83.35,53.98 -3.576,103.363 -6.63,107.361c-46.304,60.609 -49.077,75.93 -49.587,72.47c-105.692,-62.289 8.028,60.19 -55.302,86.37c-61.27,25.33 -76.76,-66.68 -119.61,-70.2c-40.58,-3.33 -43.04,72.63 -114.49,70.2c-83.82,-2.85 22.56,-88.37 -46.88,-101.45c-30.5,-5.74 -68.46,66.3 -120.7,33.27c-33.19,-20.99 4.259,-43.53 87.669,-120.53c24.365,-22.494 32.545,-37.582 22.096,-71.287c-10.952,-35.329 -67.783,-44.62 -203.816,-41.074c-98.355,2.564 -299.098,-8.679 -312.258,44.074c-8.373,33.565 8.044,71.802 20.188,96.157c31.097,62.363 104.885,133 49.061,149.33c-67.012,19.603 -78.975,-51.932 -120.812,-44.69c-58.522,10.131 23.655,83.62 -47.875,91.25c-57.923,6.179 -43.842,-86.33 -83.622,-87.25c-56.25,-1.29 -42.77,83.476 -99.072,80.85c-96.339,-4.494 -3.231,-91.33 -62.329,-97.85c-33.8,-3.73 -71.777,68.14 -117.271,36.96c-37.628,-25.79 -22.08,-44.43 44.017,-128.56c2.418,-2.76 -112.377,-79.2 -28.699,-105.931c64.848,-20.716 65.487,59.101 28.699,105.931c-29.023,33.04 -38.925,52.15 -50.28,63.6c-3.419,3.45 -49.564,-60.077 -81.489,-43.327c-30.429,15.965 33.162,80.942 -20,98.842c-96.102,32.35 -57.541,-76.645 -119.863,-86.805c-75.148,-12.25 -70.89,110.49 -158.626,98.58c-77.635,-10.55 3.111,-81.61 -24.999,-98.58c-40.944,-24.72 -102.013,72.78 -167.625,31.25c-50.454,-31.94 75.834,-101.47 112.045,-156.47l-0.001,0c245.877,-373.46 -108.1,-671.868 -0.937,-1080.17c102.505,-390.56 519.736,-603.472 999.298,-417.203c37.87,23.24 78.04,-30.744 114.73,0c12.51,10.48 21.07,30.134 26.7,53.044c40.59,26.272 67.47,71.949 67.47,123.855c-0,61.52 -37.77,114.29 -91.36,136.372Z" style="stroke:#000;stroke-width:64px;"/>
        <path id="Stains" d="M879.427,1271.63c125.453,53.78 265.393,70.41 418.683,69.39c-30.6,69.53 -140.71,144.15 -274.7,109.48c-156.15,-40.39 -157.612,-128.82 -143.983,-178.87Zm961.553,35.22c0.45,8.99 -0.11,18.06 -1.63,27.15c-15.58,93.42 -125.66,152.5 -245.68,131.84c-86.96,-14.97 -155.42,-67.71 -180.31,-131.25c134.54,-2.58 279.77,-15.27 427.62,-27.74Zm144.38,-11.73c144.39,-10.98 288.87,-18.59 426.09,-13.43l11.91,0.61c-10,81.05 -92.19,151.18 -198.95,163.83c-120.91,14.33 -227.84,-50.45 -238.65,-144.57l-0.4,-6.44Zm566.37,-0.3c166.14,25.6 286.7,84.19 373.96,159.07c-54.28,44.11 -143.51,52.97 -227.88,16.51c-83.31,-36.01 -138.56,-106.13 -146.08,-175.58Zm-1858.41,-761.438c18.453,-6.568 37.362,-12.458 56.7,-17.649c27.127,67.108 -8.53,156.509 -87.441,209.879c-86.116,58.245 -191.889,52.033 -238.363,-13.326c69.916,-77.225 161.71,-139.439 269.104,-178.904Zm-411.709,468.445c57.57,24.348 101.172,94.011 105.211,177.807c4.344,90.154 -38.478,168.116 -100.433,192.493c-22.84,-76.524 -33.679,-166.807 -22.915,-274.187c3.293,-32.864 9.387,-64.971 18.137,-96.113Zm2721.42,687.725c126.282,9.389 132.424,376.304 48.007,403.446c-74.187,9.113 -145.173,-73.879 -158.422,-185.219c-13.248,-111.33 36.228,-209.122 110.415,-218.227Zm-368.054,706.474c0,0 109.548,-36.374 169.948,-83.055c50.511,-49.298 90.189,-78.349 144.629,-36.119c94.876,73.597 -99.573,208.857 -314.577,119.174Zm-712.452,5.077c137.681,-0.394 271.194,6.47 392.853,8.027c-37.131,58.79 -118.747,97.26 -208.957,92.942c-79.292,-3.805 -147.345,-50.166 -183.896,-100.969Zm-1226.96,-52.972c138.263,-4.078 261.192,6.259 408.837,12.945c-37.146,60.631 -118.708,100.433 -211.114,95.855c-93.38,-4.624 -167.446,-43.782 -197.723,-108.8Zm636.878,23.945c121.237,7.718 248.244,14.861 380.596,21.154c-40.703,51.368 -106.584,80.681 -190.583,73.949c-79.091,-6.347 -155.805,-42.868 -190.013,-95.103Z" style="fill:#ffce00;"/>
        <g id="Light">
            <path d="M526.663,621c-123.551,84.685 -261.376,301.967 -261.376,484.915c0,379.848 132.093,337.904 480.657,39.256c247.104,-211.718 438.681,-618.86 361.143,-632.597c-322.824,-57.193 -512.612,61.946 -580.424,108.426Z" style="fill:url(#_Linear1);"/>
            <path d="M1744.63,1322.91c-667.448,71.314 -846.642,-47.435 -871.622,-46.226c-5.531,0.268 -5.548,7.414 -5.548,25.469c-0,206.585 377.45,319.291 580.33,333.761c162.703,11.604 488.604,19.369 820.305,-23.41c473.409,-61.055 781.769,907.115 844.324,351.568c4.189,-37.202 45.855,-103.591 -0,-227.255c-70.555,-190.275 -212.431,-297.006 -290.749,-341.3c-328.736,-185.918 -873.636,-94.34 -1077.04,-72.607Z" style="fill:url(#_Linear2);"/>
            <path d="M1424.07,2375.93c-409.865,-17.09 -572.258,-26.782 -701.839,-26.782c-148.99,0 -358.491,42.587 -362.198,66.142c-13.295,84.488 501.756,45.97 688.925,84.138c66.454,13.552 483.054,23.284 816.648,24.281c476.112,1.422 369.921,60.473 677.334,15.023c101.617,-15.023 198.576,-99.678 223.406,-205.414c0.829,-3.534 0.446,-7.761 -0.595,-6.64c-38.338,41.291 -69.428,49.252 -111.054,60.897c-79.496,22.239 -214.789,22.885 -284.908,23.799c-278.009,3.625 -462.147,-15.28 -945.719,-35.444Z" style="fill:url(#_Linear3);"/>
            <path d="M2133.84,2038.56c7.444,-3.436 -20.769,-9.925 -88.263,-16.236c-99.674,-9.32 -191.015,-14.081 -180.678,-9.32c177.444,81.736 251.137,138.439 251.137,138.439c0,0 -73.283,-70.838 17.804,-112.883Z" style="fill:url(#_Linear4);"/>
            <path d="M758.966,2039.11c34.257,-13.679 58.075,10.026 46.35,2c-75.086,-51.4 -304.306,-254.811 -302.226,-251.689c137.204,205.889 233.091,313.025 229.025,299.413c-9.64,-32.274 11.405,-43.556 26.851,-49.724Z" style="fill:url(#_Linear5);"/>
        </g>
        <path id="Mouth" d="M1553.67,1095.29c0,-0 -16.431,56.448 -38.73,56.448c-33.815,9.212 -139.68,25.193 -185.764,25.193c-35.846,-0 -241.664,-10.464 -320.578,-70.59c-24.398,-18.59 233.155,8.752 314.765,9.882c30.33,0.421 132.202,2.915 235.724,-41.899c1.162,-0.503 -2.992,12.634 -5.417,20.966Z" style="fill:#dc0408;stroke:#7d0000;stroke-width:8.42px;"/>
        <path id="Outline" d="M1398.83,872.199c-2.01,4.782 -3.07,6.618 -2.81,6.688c257.69,70.059 167.33,306.298 33.72,339.868c-34.63,8.71 -229.57,41.21 -448.767,2.28c-173.433,-30.8 -213.633,-8.89 -185.008,8.25c391.585,234.46 1164.57,19.42 1613.49,51.52c860.69,61.54 733.96,794.14 732.89,840.5c-0,0.38 0.38,0 0.38,0c-4.61,140.41 -58.98,218.12 -118.05,284.15c-27.055,30.243 -57.526,55.259 -91.138,75.844c-226.952,138.994 -597.098,75.953 -1025.49,55.746c-848.36,-40 -1273.81,-26.58 -1532.97,-12.72c-171.936,9.2 -312.807,18.62 -303.094,12.72c159.745,-97.02 313.339,-156.32 492.969,-181.07c94.379,-13.01 195.947,-16.48 309.37,-10.87c1731.65,85.56 1967.29,125.972 1901.38,-175.617l-15.046,-43.007c-49.687,-138.47 -211.444,-108.466 -212.473,-76.463c-7.342,228.428 122.816,226.129 74.5,277.527c-48.347,51.431 -119.138,-88.17 -174.109,-59.215c-27.333,14.396 58.4,103.085 -0,113.515c-66.29,11.84 -74.994,-83.611 -115.344,-83.34c-53.598,0.36 -35.269,94.06 -101.269,83.34c-61.73,-10.02 -2.472,-79.077 -23.478,-100.07c-49.813,-49.781 -91.777,67.176 -132.697,45.77c-53.798,-28.142 8.506,-120.83 53.677,-178.37c64.312,-81.925 19.54,-117.031 1.54,-105.361c-83.35,53.98 -3.576,103.363 -6.63,107.361c-46.304,60.609 -49.077,75.93 -49.587,72.47c-105.692,-62.289 8.028,60.19 -55.302,86.37c-61.27,25.33 -76.76,-66.68 -119.61,-70.2c-40.58,-3.33 -43.04,72.63 -114.49,70.2c-83.82,-2.85 22.56,-88.37 -46.88,-101.45c-30.5,-5.74 -68.46,66.3 -120.7,33.27c-33.19,-20.99 -0.632,-43.53 82.778,-120.53c24.365,-22.494 37.436,-37.582 26.987,-71.287c-10.952,-35.329 -67.783,-44.62 -203.816,-41.074c-98.355,2.564 -299.098,-8.679 -312.258,44.074c-8.373,33.565 8.044,71.802 20.188,96.157c31.097,62.363 104.885,133 49.061,149.33c-67.012,19.603 -78.975,-51.932 -120.812,-44.69c-58.522,10.131 23.655,83.62 -47.875,91.25c-57.923,6.179 -43.842,-86.33 -83.622,-87.25c-56.25,-1.29 -42.77,83.476 -99.072,80.85c-96.339,-4.494 -3.231,-91.33 -62.329,-97.85c-33.8,-3.73 -71.777,68.14 -117.271,36.96c-37.628,-25.79 -22.08,-44.43 44.017,-128.56c2.418,-2.76 -112.377,-79.2 -28.699,-105.931c64.848,-20.716 65.487,59.101 28.699,105.931c-29.023,33.04 -38.925,52.15 -50.28,63.6c-3.419,3.45 -49.564,-60.077 -81.489,-43.327c-30.429,15.965 33.162,80.942 -20,98.842c-96.102,32.35 -57.541,-76.645 -119.863,-86.805c-75.148,-12.25 -70.89,110.49 -158.626,98.58c-77.635,-10.55 3.111,-81.61 -24.999,-98.58c-40.944,-24.72 -102.013,72.78 -167.625,31.25c-50.454,-31.94 75.834,-101.47 112.045,-156.47l-0.001,0c245.877,-373.46 -108.1,-671.868 -0.937,-1080.17c102.505,-390.56 519.736,-603.472 999.298,-417.203c37.87,23.24 78.04,-30.744 114.73,0c12.51,10.48 21.07,30.134 26.7,53.044c40.59,26.272 67.47,71.949 67.47,123.855c-0,61.52 -37.77,114.29 -91.36,136.372Z" style="fill:none;stroke:#fff;stroke-width:10px;"/>
        <g id="Eyes">
            <g id="Left">
                <circle cx="1344.77" cy="736.702" r="147.426" style="fill:#fff;"/>
                <circle cx="1386.65" cy="770.147" r="75.083"/>
                <circle cx="1349.18" cy="741.112" r="13.097" style="fill:#fff;"/>
            </g>
            <g id="Right">
                <circle cx="954.77" cy="736.702" r="161.14" style="fill:#fff;"/>
                <circle cx="1000.55" cy="773.258" r="82.067"/>
                <circle cx="960.655" cy="742.587" r="14.572" style="fill:#fff;"/>
            </g>
        </g>
    </g>
    <defs>
        <linearGradient id="_Linear1" x1="0" y1="0" x2="1" y2="0" gradientUnits="userSpaceOnUse" gradientTransform="matrix(-194.58,-147.633,46.497,-61.2828,700.386,971.075)"><stop offset="0" style="stop-color:#0e0000;stop-opacity:0.36"/><stop offset="1" style="stop-color:#fff;stop-opacity:0.36"/></linearGradient>
        <linearGradient id="_Linear2" x1="0" y1="0" x2="1" y2="0" gradientUnits="userSpaceOnUse" gradientTransform="matrix(-12.676,-253.77,76.7758,-3.83501,1691.89,1606.53)"><stop offset="0" style="stop-color:#0e0000;stop-opacity:0.36"/><stop offset="1" style="stop-color:#fff;stop-opacity:0.36"/></linearGradient>
        <linearGradient id="_Linear3" x1="0" y1="0" x2="1" y2="0" gradientUnits="userSpaceOnUse" gradientTransform="matrix(3.68852,-104.493,76.8237,2.71182,1299.07,2470.78)"><stop offset="0" style="stop-color:#0e0000;stop-opacity:0.36"/><stop offset="1" style="stop-color:#fff;stop-opacity:0.36"/></linearGradient>
        <linearGradient id="_Linear4" x1="0" y1="0" x2="1" y2="0" gradientUnits="userSpaceOnUse" gradientTransform="matrix(53.7115,-230.615,50.8701,11.8479,1969.88,2160.62)"><stop offset="0" style="stop-color:#0e0000;stop-opacity:0.21"/><stop offset="0.38" style="stop-color:#180a0a;stop-opacity:0.24"/><stop offset="0.49" style="stop-color:#342828;stop-opacity:0.33"/><stop offset="0.57" style="stop-color:#574e4e;stop-opacity:0.43"/><stop offset="0.79" style="stop-color:#d4d2d2;stop-opacity:0.85"/><stop offset="1" style="stop-color:#fff;stop-opacity:1"/></linearGradient>
        <linearGradient id="_Linear5" x1="0" y1="0" x2="1" y2="0" gradientUnits="userSpaceOnUse" gradientTransform="matrix(188.502,-143.301,31.6099,41.5807,674.454,2106.19)"><stop offset="0" style="stop-color:#0e0000;stop-opacity:0.21"/><stop offset="0.19" style="stop-color:#110404;stop-opacity:0.24"/><stop offset="0.28" style="stop-color:#281c1c;stop-opacity:0.44"/><stop offset="1" style="stop-color:#fff;stop-opacity:1"/></linearGradient>
    </defs>
</svg>

<?xml version="1.0" encoding="UTF-8" standalone="no"?>
<!DOCTYPE svg PUBLIC "-//W3C//DTD SVG 1.1//EN" "http://www.w3.org/Graphics/SVG/1.1/DTD/svg11.dtd">
<svg width="100%" height="100%" viewBox="0 0 3225 3225" version="1.1" xmlns="http://www.w3.org/2000/svg" xmlns:xlink="http://www.w3.org/1999/xlink" xml:space="preserve" xmlns:serif="http://www.serif.com/" style="fill-rule:evenodd;clip-rule:evenodd;stroke-linejoin:round;stroke-miterlimit:2;">
    <g id="Salamandra">
        <path id="body-black" serif:id="body black" d="M1398.83,872.199C1396.82,876.981 1395.76,878.817 1396.02,878.887C1653.71,948.946 1563.35,1185.18 1429.74,1218.76C1395.11,1227.46 1200.17,1259.96 980.976,1221.04C807.543,1190.24 767.343,1212.14 795.968,1229.29C1187.55,1463.75 1960.53,1248.7 2409.45,1280.81C3270.14,1342.35 3143.41,2074.95 3142.34,2121.3C3142.34,2121.68 3142.72,2121.3 3142.72,2121.3C3138.11,2261.72 3083.74,2339.43 3024.67,2405.45C2814.94,2639.91 2399.88,2560.24 1908.04,2537.05C1059.68,2497.05 634.233,2510.47 375.071,2524.33C203.135,2533.53 62.264,2542.95 71.977,2537.05C231.722,2440.03 385.316,2380.72 564.946,2355.97C659.325,2342.97 760.893,2339.49 874.316,2345.11C2605.96,2430.66 2841.61,2471.08 2775.69,2169.49L2760.65,2126.48C2710.96,1988.01 2549.2,2018.02 2548.17,2050.02C2540.83,2278.45 2670.99,2276.15 2622.67,2327.55C2574.33,2378.98 2503.53,2239.38 2448.56,2268.33C2421.23,2282.73 2506.96,2371.41 2448.56,2381.85C2382.27,2393.68 2373.57,2298.23 2333.22,2298.51C2279.62,2298.87 2297.95,2392.57 2231.95,2381.85C2170.22,2371.83 2229.48,2302.77 2208.47,2281.78C2158.66,2231.99 2116.7,2348.95 2075.78,2327.55C2021.98,2299.4 2084.28,2206.72 2129.45,2149.18C2193.76,2067.25 2148.99,2032.14 2130.99,2043.81C2047.64,2097.79 2127.42,2147.18 2124.36,2151.18C2078.06,2211.78 2075.29,2227.11 2074.78,2223.64C1969.08,2161.36 2082.8,2283.84 2019.47,2310.01C1958.2,2335.35 1942.71,2243.34 1899.86,2239.82C1859.28,2236.49 1856.82,2312.45 1785.37,2310.01C1701.55,2307.16 1807.93,2221.64 1738.49,2208.57C1707.99,2202.83 1670.03,2274.87 1617.79,2241.84C1584.6,2220.85 1622.05,2198.3 1705.46,2121.3C1729.83,2098.81 1738.01,2083.72 1727.56,2050.02C1716.61,2014.69 1659.78,2005.4 1523.74,2008.94C1425.39,2011.51 1224.64,2000.27 1211.49,2053.02C1203.11,2086.58 1219.53,2124.82 1231.67,2149.18C1262.77,2211.54 1336.56,2282.18 1280.73,2298.51C1213.72,2318.11 1201.76,2246.57 1159.92,2253.82C1101.4,2263.95 1183.58,2337.43 1112.05,2345.07C1054.12,2351.24 1068.2,2258.74 1028.42,2257.82C972.175,2256.53 985.655,2341.29 929.353,2338.66C833.014,2334.17 926.122,2247.34 867.024,2240.82C833.224,2237.09 795.247,2308.95 749.753,2277.78C712.125,2251.99 727.673,2233.35 793.77,2149.22C796.188,2146.45 681.393,2070.01 765.071,2043.28C829.919,2022.57 830.558,2102.39 793.77,2149.22C764.747,2182.26 754.845,2201.37 743.49,2212.82C740.071,2216.26 693.926,2152.74 662.001,2169.49C631.572,2185.45 695.163,2250.43 642.001,2268.33C545.899,2300.68 584.46,2191.68 522.138,2181.53C446.99,2169.28 451.248,2292.01 363.512,2280.11C285.877,2269.55 366.623,2198.49 338.513,2181.53C297.569,2156.8 236.5,2254.3 170.888,2212.78C120.434,2180.84 246.722,2111.3 282.933,2056.3L282.932,2056.3C528.809,1682.85 174.832,1384.44 281.995,976.131C384.5,585.571 801.731,372.659 1281.29,558.928C1319.16,582.168 1359.33,528.184 1396.02,558.928C1408.53,569.408 1417.09,589.062 1422.72,611.972C1463.31,638.244 1490.19,683.921 1490.19,735.827C1490.19,797.347 1452.42,850.117 1398.83,872.199Z" style="stroke:black;stroke-width:65.71px;"/>
        <path id="mouth" d="M1560.86,1064.05C1564.33,1062.27 1557.4,1098.09 1539.51,1130.4C1506.21,1152.16 1357.83,1173.52 1310.8,1173.52C1274.22,1173.52 908.967,1164.49 828.43,1103.13C803.531,1084.16 1140.81,1124.6 1310.8,1116.13C1364.18,1113.46 1488.6,1101.15 1560.86,1064.05Z" style="fill:rgb(220,4,8);stroke:rgb(62,0,0);stroke-width:8.59px;"/>
        <path id="stains" d="M879.427,1271.63C1004.88,1325.41 1144.82,1342.04 1298.11,1341.02C1267.51,1410.55 1157.4,1485.17 1023.41,1450.5C867.26,1410.11 865.798,1321.68 879.427,1271.63ZM3082.88,1668.22C3165.14,1854.22 3150.14,2049.3 3145.43,2107.22C3137.44,2110.46 3129.07,2112.62 3120.39,2113.69C3038.58,2123.74 2960.3,2032.22 2945.69,1909.44C2931.08,1786.67 2985.64,1678.83 3067.45,1668.79C3072.62,1668.15 3077.76,1667.92 3082.88,1668.22ZM1840.98,1306.85C1841.43,1315.84 1840.87,1324.91 1839.35,1334C1823.77,1427.42 1713.69,1486.5 1593.67,1465.84C1506.71,1450.87 1438.25,1398.13 1413.36,1334.59C1547.9,1332.01 1693.13,1319.32 1840.98,1306.85ZM1985.36,1295.12C2129.75,1284.14 2274.23,1276.53 2411.45,1281.69L2423.36,1282.3C2413.36,1363.35 2331.17,1433.48 2224.41,1446.13C2103.5,1460.46 1996.57,1395.68 1985.76,1301.56L1985.36,1295.12ZM2551.73,1294.82C2717.87,1320.42 2838.43,1379.01 2925.69,1453.89C2871.41,1498 2782.18,1506.86 2697.81,1470.4C2614.5,1434.39 2559.25,1364.27 2551.73,1294.82ZM1990.89,2539.67C2030.16,2491.08 2099.96,2459.05 2179.2,2459.69C2269.35,2460.43 2346.6,2503.25 2380.32,2563.92C2258.98,2558.67 2128.09,2547.76 1990.89,2539.67ZM2654.44,2561.03C2664.6,2493.16 2719.71,2425.7 2801.43,2391.07C2884.55,2355.85 2972.05,2364.4 3026.49,2406.63C2936.81,2504.83 2809.19,2546.89 2654.44,2561.03ZM1363.79,2515.64C1402.83,2466.16 1473.27,2433.43 1553.36,2434.08C1638.42,2434.78 1712,2472.94 1748.36,2528.21C1614.72,2522.77 1486.38,2518.66 1363.79,2515.64ZM668.792,2508.94C702.265,2446.7 781.617,2403.29 873.737,2404.04C964.896,2404.78 1042.87,2448.56 1075.97,2510.31C930.353,2508.51 794.427,2508.22 668.792,2508.94ZM693.318,533.382C711.771,526.814 730.68,520.924 750.018,515.733C777.145,582.841 741.488,672.242 662.577,725.612C576.461,783.857 470.688,777.645 424.214,712.286C494.13,635.061 585.924,572.847 693.318,533.382ZM281.609,1001.83C339.179,1026.17 382.781,1095.84 386.82,1179.63C391.164,1269.79 348.342,1347.75 286.387,1372.13C263.547,1295.6 252.708,1205.32 263.472,1097.94C266.765,1065.08 272.859,1032.97 281.609,1001.83Z" style="fill:rgb(255,206,0);stroke:white;stroke-width:0.75px;"/>
        <path id="body-white" serif:id="body black" d="M1398.83,872.199C1396.82,876.981 1395.76,878.817 1396.02,878.887C1653.71,948.946 1563.35,1185.18 1429.74,1218.76C1395.11,1227.46 1200.17,1259.96 980.976,1221.04C807.543,1190.24 767.343,1212.14 795.968,1229.29C1187.55,1463.75 1960.53,1248.7 2409.45,1280.81C3270.14,1342.35 3143.41,2074.95 3142.34,2121.3C3142.34,2121.68 3142.72,2121.3 3142.72,2121.3C3138.11,2261.72 3083.74,2339.43 3024.67,2405.45C2814.94,2639.91 2399.88,2560.24 1908.04,2537.05C1059.68,2497.05 634.233,2510.47 375.071,2524.33C203.135,2533.53 62.264,2542.95 71.977,2537.05C231.722,2440.03 385.316,2380.72 564.946,2355.97C659.325,2342.97 760.893,2339.49 874.316,2345.11C2605.96,2430.66 2841.61,2471.08 2775.69,2169.49L2760.65,2126.48C2710.96,1988.01 2549.2,2018.02 2548.17,2050.02C2540.83,2278.45 2670.99,2276.15 2622.67,2327.55C2574.33,2378.98 2503.53,2239.38 2448.56,2268.33C2421.23,2282.73 2506.96,2371.41 2448.56,2381.85C2382.27,2393.68 2373.57,2298.23 2333.22,2298.51C2279.62,2298.87 2297.95,2392.57 2231.95,2381.85C2170.22,2371.83 2229.48,2302.77 2208.47,2281.78C2158.66,2231.99 2116.7,2348.95 2075.78,2327.55C2021.98,2299.4 2084.28,2206.72 2129.45,2149.18C2193.76,2067.25 2148.99,2032.14 2130.99,2043.81C2047.64,2097.79 2127.42,2147.18 2124.36,2151.18C2078.06,2211.78 2075.29,2227.11 2074.78,2223.64C1969.08,2161.36 2082.8,2283.84 2019.47,2310.01C1958.2,2335.35 1942.71,2243.34 1899.86,2239.82C1859.28,2236.49 1856.82,2312.45 1785.37,2310.01C1701.55,2307.16 1807.93,2221.64 1738.49,2208.57C1707.99,2202.83 1670.03,2274.87 1617.79,2241.84C1584.6,2220.85 1617.16,2198.3 1700.57,2121.3C1724.94,2098.81 1738.01,2083.72 1727.56,2050.02C1716.61,2014.69 1659.78,2005.4 1523.74,2008.94C1425.39,2011.51 1224.64,2000.27 1211.49,2053.02C1203.11,2086.58 1219.53,2124.82 1231.67,2149.18C1262.77,2211.54 1336.56,2282.18 1280.73,2298.51C1213.72,2318.11 1201.76,2246.57 1159.92,2253.82C1101.4,2263.95 1183.58,2337.43 1112.05,2345.07C1054.12,2351.24 1068.2,2258.74 1028.42,2257.82C972.175,2256.53 985.655,2341.29 929.353,2338.66C833.014,2334.17 926.122,2247.34 867.024,2240.82C833.224,2237.09 795.247,2308.95 749.753,2277.78C712.125,2251.99 727.673,2233.35 793.77,2149.22C796.188,2146.45 681.393,2070.01 765.071,2043.28C829.919,2022.57 830.558,2102.39 793.77,2149.22C764.747,2182.26 754.845,2201.37 743.49,2212.82C740.071,2216.26 693.926,2152.74 662.001,2169.49C631.572,2185.45 695.163,2250.43 642.001,2268.33C545.899,2300.68 584.46,2191.68 522.138,2181.53C446.99,2169.28 451.248,2292.01 363.512,2280.11C285.877,2269.55 366.623,2198.49 338.513,2181.53C297.569,2156.8 236.5,2254.3 170.888,2212.78C120.434,2180.84 246.722,2111.3 282.933,2056.3L282.932,2056.3C528.809,1682.85 174.832,1384.44 281.995,976.131C384.5,585.571 801.731,372.659 1281.29,558.928C1319.16,582.168 1359.33,528.184 1396.02,558.928C1408.53,569.408 1417.09,589.062 1422.72,611.972C1463.31,638.244 1490.19,683.921 1490.19,735.827C1490.19,797.347 1452.42,850.117 1398.83,872.199Z" style="fill:none;stroke:white;stroke-width:10px;"/>
        <g id="eyes">
            <g id="left">
                <circle cx="1344.77" cy="736.702" r="147.426" style="fill:white;"/>
                <circle cx="1386.65" cy="770.147" r="75.083"/>
                <circle cx="1349.18" cy="741.112" r="13.097" style="fill:white;"/>
            </g>
            <g id="right">
                <circle cx="954.77" cy="736.702" r="161.14" style="fill:white;"/>
                <circle cx="1000.55" cy="773.258" r="82.067"/>
                <circle cx="960.655" cy="742.587" r="14.572" style="fill:white;"/>
            </g>
        </g>
    </g>
</svg>
